src/main/resources/icons/AllIcons/actions/showImportStatements.svg

<svg xmlns="http://www.w3.org/2000/svg" width="16" height="16" viewBox="0 0 16 16"><rect id="frame" width="16" height="16" fill="none"/><path fill="#6E6E6E" fill-rule="evenodd" d="M5 6h4v6h3v2H4v-2h3V8H5V6zm1.5-4H9v2.5H6.5V2z"/></svg>

<!-- Copyright 2000-2021 JetBrains s.r.o. Use of this source code is governed by the Apache 2.0 license that can be found in the LICENSE file. -->
<svg xmlns="http://www.w3.org/2000/svg" width="16" height="16" viewBox="0 0 16 16">
  <path fill="#6E6E6E" fill-rule="evenodd" d="M5,6 L9,6 L9,12 L12,12 L12,14 L4,14 L4,12 L7,12 L7,8 L5,8 L5,6 Z M6.5,2 L9,2 L9,4.5 L6.5,4.5 L6.5,2 Z"/>
</svg>
